X:97
T: IM TIEFEN WALD IM DORNENHAG
N: B0126
O: Europa, Mitteleuropa, Deutschland, Niederrhein (?)
R: Ballade, Romanze
M: 2/4
L: 1/8
K: G
 | _B2AG | =F3F | G2A2 | _B4 |
B2AG | =F3F | G2A2 | _B4 |
B2AB | G2AF | G2z2 |
_B2c2 | d2z2 | _B2c2 | d2z2 |
d2c_B | A2G2 | A2GF | G2z2

@@@ Tune index: 1900
